X: 9380
T: Dancing With Mrs. White
R: polka
M: 2/4
K: Cmajor
|:cd ec|A2 AG|cd ec|ge fd|
cd ec|A2 AG|cE DF|1 EC C2:|2 EC CE||
|:G>A GE|CE GE/G/|A>B AG|cE DF|
G>A GE|CE GE/G/|A>B AG|1 ED CE:|2 ED C2||

